src/assets/icons/light_toggler_thumb.svg

<svg fill="none" height="21" viewBox="0 0 21 21" width="21" xmlns="http://www.w3.org/2000/svg"><path d="m16.895 10.5491c0 3.5758-2.877 6.4748-6.4259 6.4748-3.54883 0-6.42564-2.899-6.42564-6.4748 0-3.57592 2.87681-6.47464 6.42564-6.47464 3.5489 0 6.4259 2.89872 6.4259 6.47464z" fill="#f6cb43"/><path d="m16.8947 10.5485c0 3.5761-2.8768 6.4748-6.4257 6.4748-3.1127 0-5.70871-2.23-6.29932-5.191.41208.0835.83769.1275 1.27405.1275 3.54907 0 6.42567-2.89875 6.42567-6.47485 0-.43968-.0434-.86853-.1265-1.28353 2.9389.59554 5.1518 3.21132 5.1518 6.34708z" fill="#fab03c"/><g fill="#f6cb43"><path d="m10.4691 2.23847c-.2312 0-.4186-.18899-.4186-.42193v-1.394585c0-.232937.1874-.42171086.4186-.42171086.2314 0 .4187.18877386.4187.42171086v1.394585c0 .23294-.1873.42193-.4187.42193z"/><path d="m6.13646 3.40855c-.1446 0-.28532-.07555-.36288-.21086l-.69203-1.20776c-.11558-.20176-.04705-.4596.15319-.57607.20024-.11668.45634-.04741.57192.15436l.69203 1.20755c.11559.20176.04705.45981-.15319.57628-.06596.03832-.13793.0565-.20904.0565z"/><path d="m2.96318 6.60475c-.07112 0-.14309-.01819-.20905-.05651l-1.19864-.69729c-.20002-.11647-.26877-.37452-.15318-.57629.11559-.20176.37168-.27082.57192-.15435l1.19864.6973c.20002.11647.26877.37452.15319.57606-.07756.13552-.21829.21108-.36288.21108z"/><path d="m1.80257 10.9708h-1.384046c-.231177 0-.418524-.189-.418524-.4219s.187347-.4217.418524-.4217h1.384046c.2314 0 .41874.1888.41874.4217s-.18734.4219-.41874.4219z"/><path d="m17.975 6.60475c-.1445 0-.2855-.07556-.3628-.21108-.1158-.20176-.0471-.45959.1532-.57606l1.1984-.6973c.2004-.11647.4563-.04741.5719.15435.1156.20177.0471.45982-.1532.57629l-1.1986.69729c-.066.03832-.138.05651-.2089.05651z"/><path d="m1.76545 16.0345c-.14481 0-.28554-.0755-.3631-.211-.11558-.2016-.04705-.4596.15319-.5761l1.19864-.6973c.20024-.1167.45634-.0474.57192.1543.11559.2018.04705.4596-.15318.5763l-1.19864.6973c-.06596.0383-.13793.0565-.20883.0565z"/><path d="m14.8017 3.40855c-.0709 0-.1428-.01818-.2088-.0565-.2002-.11647-.2688-.37452-.1532-.57628l.692-1.20755c.1156-.20177.3717-.27104.5717-.15436.2003.11647.269.37431.1534.57607l-.692 1.20776c-.0775.13531-.2183.21086-.3631.21086z"/><path d="m10.5309 18.762c.2312 0 .4186.189.4186.4219v1.3946c0 .233-.1874.4217-.4186.4217-.2314 0-.4187-.1887-.4187-.4217v-1.3946c0-.2329.1873-.4219.4187-.4219z"/><path d="m14.8635 17.5919c.1446 0 .2854.0756.3629.2109l.692 1.2078c.1156.2017.0471.4596-.1531.576-.2003.1167-.4564.0474-.572-.1543l-.692-1.2076c-.1156-.2017-.047-.4598.1532-.5763.066-.0383.1379-.0565.209-.0565z"/><path d="m18.0368 14.3957c.0711 0 .1431.0182.2091.0565l1.1986.6973c.2.1165.2688.3746.1532.5763-.1156.2018-.3717.2708-.5719.1544l-1.1987-.6973c-.2-.1165-.2687-.3745-.1532-.5761.0776-.1355.2183-.2111.3629-.2111z"/><path d="m19.1974 10.0297h1.3841c.2312 0 .4185.1889.4185.4219 0 .2329-.1873.4217-.4185.4217h-1.3841c-.2314 0-.4187-.1888-.4187-.4217 0-.233.1873-.4219.4187-.4219z"/><path d="m3.02495 14.3957c.1446 0 .28554.0756.36288.2111.11581.2018.04706.4596-.15318.5761l-1.19843.6973c-.20045.1164-.45634.0474-.57192-.1544-.11559-.2017-.04706-.4598.15318-.5763l1.19864-.6973c.06596-.0383.13793-.0565.20883-.0565z"/><path d="m19.2346 4.96596c.1448 0 .2855.07555.363.21107.1156.20155.0471.4596-.1531.57607l-1.1987.69729c-.2002.11669-.4563.04741-.5719-.15435s-.0471-.4596.1532-.57628l1.1986-.6973c.066-.03831.138-.0565.2089-.0565z"/><path d="m6.19827 17.5919c.0709 0 .14288.0182.20884.0565.20023.1165.26877.3746.15318.5763l-.69202 1.2076c-.11559.2017-.37169.271-.57171.1543-.20024-.1164-.26899-.3743-.1534-.576l.69202-1.2078c.07756-.1353.21829-.2109.36309-.2109z"/></g></svg>

<svg width="21" height="21" viewBox="0 0 21 21" fill="none" xmlns="http://www.w3.org/2000/svg">
<path d="M16.895 10.5491C16.895 14.1249 14.018 17.0239 10.4691 17.0239C6.92027 17.0239 4.04346 14.1249 4.04346 10.5491C4.04346 6.97318 6.92027 4.07446 10.4691 4.07446C14.018 4.07446 16.895 6.97318 16.895 10.5491Z" fill="#F6CB43"/>
<path d="M16.8947 10.5485C16.8947 14.1246 14.0179 17.0233 10.469 17.0233C7.3563 17.0233 4.76029 14.7933 4.16968 11.8323C4.58176 11.9158 5.00737 11.9598 5.44373 11.9598C8.9928 11.9598 11.8694 9.06105 11.8694 5.48495C11.8694 5.04527 11.826 4.61642 11.7429 4.20142C14.6818 4.79696 16.8947 7.41274 16.8947 10.5485Z" fill="#FAB03C"/>
<path d="M10.4691 2.23847C10.2379 2.23847 10.0505 2.04948 10.0505 1.81654V0.421955C10.0505 0.189018 10.2379 0.000244141 10.4691 0.000244141C10.7005 0.000244141 10.8878 0.189018 10.8878 0.421955V1.81654C10.8878 2.04948 10.7005 2.23847 10.4691 2.23847Z" fill="#F6CB43"/>
<path d="M6.13646 3.40855C5.99186 3.40855 5.85114 3.333 5.77358 3.19769L5.08155 1.98993C4.96597 1.78817 5.0345 1.53033 5.23474 1.41386C5.43498 1.29718 5.69108 1.36645 5.80666 1.56822L6.49869 2.77577C6.61428 2.97753 6.54574 3.23558 6.3455 3.35205C6.27954 3.39037 6.20757 3.40855 6.13646 3.40855Z" fill="#F6CB43"/>
<path d="M2.96318 6.60475C2.89206 6.60475 2.82009 6.58656 2.75413 6.54824L1.55549 5.85095C1.35547 5.73448 1.28672 5.47643 1.40231 5.27466C1.5179 5.0729 1.77399 5.00384 1.97423 5.12031L3.17287 5.81761C3.37289 5.93408 3.44164 6.19213 3.32606 6.39367C3.2485 6.52919 3.10777 6.60475 2.96318 6.60475Z" fill="#F6CB43"/>
<path d="M1.80257 10.9708H0.418524C0.187347 10.9708 0 10.7818 0 10.5489C0 10.316 0.187347 10.1272 0.418524 10.1272H1.80257C2.03397 10.1272 2.22131 10.316 2.22131 10.5489C2.22131 10.7818 2.03397 10.9708 1.80257 10.9708Z" fill="#F6CB43"/>
<path d="M17.975 6.60475C17.8305 6.60475 17.6895 6.52919 17.6122 6.39367C17.4964 6.19191 17.5651 5.93408 17.7654 5.81761L18.9638 5.12031C19.1642 5.00384 19.4201 5.0729 19.5357 5.27466C19.6513 5.47643 19.5828 5.73448 19.3825 5.85095L18.1839 6.54824C18.1179 6.58656 18.0459 6.60475 17.975 6.60475Z" fill="#F6CB43"/>
<path d="M1.76545 16.0345C1.62064 16.0345 1.47991 15.959 1.40235 15.8235C1.28677 15.6219 1.3553 15.3639 1.55554 15.2474L2.75418 14.5501C2.95442 14.4334 3.21052 14.5027 3.3261 14.7044C3.44169 14.9062 3.37315 15.164 3.17292 15.2807L1.97428 15.978C1.90832 16.0163 1.83635 16.0345 1.76545 16.0345Z" fill="#F6CB43"/>
<path d="M14.8017 3.40855C14.7308 3.40855 14.6589 3.39037 14.5929 3.35205C14.3927 3.23558 14.3241 2.97753 14.4397 2.77577L15.1317 1.56822C15.2473 1.36645 15.5034 1.29718 15.7034 1.41386C15.9037 1.53033 15.9724 1.78817 15.8568 1.98993L15.1648 3.19769C15.0873 3.333 14.9465 3.40855 14.8017 3.40855Z" fill="#F6CB43"/>
<path d="M10.5309 18.762C10.7621 18.762 10.9495 18.951 10.9495 19.1839V20.5785C10.9495 20.8115 10.7621 21.0002 10.5309 21.0002C10.2995 21.0002 10.1122 20.8115 10.1122 20.5785V19.1839C10.1122 18.951 10.2995 18.762 10.5309 18.762Z" fill="#F6CB43"/>
<path d="M14.8635 17.5919C15.0081 17.5919 15.1489 17.6675 15.2264 17.8028L15.9184 19.0106C16.034 19.2123 15.9655 19.4702 15.7653 19.5866C15.565 19.7033 15.3089 19.634 15.1933 19.4323L14.5013 18.2247C14.3857 18.023 14.4543 17.7649 14.6545 17.6484C14.7205 17.6101 14.7924 17.5919 14.8635 17.5919Z" fill="#F6CB43"/>
<path d="M18.0368 14.3957C18.1079 14.3957 18.1799 14.4139 18.2459 14.4522L19.4445 15.1495C19.6445 15.266 19.7133 15.5241 19.5977 15.7258C19.4821 15.9276 19.226 15.9966 19.0258 15.8802L17.8271 15.1829C17.6271 15.0664 17.5584 14.8084 17.6739 14.6068C17.7515 14.4713 17.8922 14.3957 18.0368 14.3957Z" fill="#F6CB43"/>
<path d="M19.1974 10.0297H20.5815C20.8127 10.0297 21 10.2186 21 10.4516C21 10.6845 20.8127 10.8733 20.5815 10.8733H19.1974C18.966 10.8733 18.7787 10.6845 18.7787 10.4516C18.7787 10.2186 18.966 10.0297 19.1974 10.0297Z" fill="#F6CB43"/>
<path d="M3.02495 14.3957C3.16955 14.3957 3.31049 14.4713 3.38783 14.6068C3.50364 14.8086 3.43489 15.0664 3.23465 15.1829L2.03622 15.8802C1.83577 15.9966 1.57988 15.9276 1.4643 15.7258C1.34871 15.5241 1.41724 15.266 1.61748 15.1495L2.81612 14.4522C2.88208 14.4139 2.95405 14.3957 3.02495 14.3957Z" fill="#F6CB43"/>
<path d="M19.2346 4.96596C19.3794 4.96596 19.5201 5.04151 19.5976 5.17703C19.7132 5.37858 19.6447 5.63663 19.4445 5.7531L18.2458 6.45039C18.0456 6.56708 17.7895 6.4978 17.6739 6.29604C17.5583 6.09428 17.6268 5.83644 17.8271 5.71976L19.0257 5.02246C19.0917 4.98415 19.1637 4.96596 19.2346 4.96596Z" fill="#F6CB43"/>
<path d="M6.19827 17.5919C6.26917 17.5919 6.34115 17.6101 6.40711 17.6484C6.60734 17.7649 6.67588 18.023 6.56029 18.2247L5.86827 19.4323C5.75268 19.634 5.49658 19.7033 5.29656 19.5866C5.09632 19.4702 5.02757 19.2123 5.14316 19.0106L5.83518 17.8028C5.91274 17.6675 6.05347 17.5919 6.19827 17.5919Z" fill="#F6CB43"/>
</svg>
